webapp/src/main/webapp/src/assets/svgs/assessment-icons/Math_8_Congruence-Similarity.svg

<?xml version="1.0" encoding="utf-8"?>
<!-- Generator: Adobe Illustrator 24.0.0, SVG Export Plug-In . SVG Version: 6.00 Build 0)  -->
<svg version="1.1" id="Layer_1" xmlns="http://www.w3.org/2000/svg" xmlns:xlink="http://www.w3.org/1999/xlink" x="0px" y="0px"
	 viewBox="0 0 100 100" style="enable-background:new 0 0 100 100;" xml:space="preserve">
<style type="text/css">
	.st0{fill:none;}
	.st1{fill:#FFFFFF;}
	.st2{fill:#FFFFFF;stroke:#FFFFFF;stroke-width:0.25;stroke-miterlimit:10;}
	.st3{fill:none;stroke:#000000;stroke-width:0.25;stroke-linecap:round;stroke-miterlimit:10;}
	.st4{fill:#D9D9D9;}
	.st5{fill:none;stroke:#000000;stroke-width:2;stroke-linejoin:round;stroke-miterlimit:10;}
	.st6{fill:none;stroke:#000000;stroke-width:0.4396;stroke-miterlimit:10;}
	.st7{fill:none;stroke:#000000;stroke-linecap:round;stroke-linejoin:round;}
	.st8{fill:none;stroke:#000000;stroke-linecap:round;stroke-linejoin:round;stroke-miterlimit:10;}
</style>
<path d="M99.98,51.52v-3h-7.93v-8.14h7.93v-0.25h-7.93v-7.8h7.93v-0.25h-7.93v-7.8h7.93v-0.25h-7.93v-7.8h7.93v-0.25h-7.93v-7.8
	h7.93V7.93h-7.93V0.01H91.8v7.92h-7.83V0.01h-0.25v7.92H75.9V0.01h-0.25v7.92h-7.83V0.01h-0.25v7.92h-7.83V0.01h-0.25v7.92H51.5
	V0.05h-3v7.88h-7.99V0.01h-0.25v7.92h-7.83V0.01h-0.25v7.92h-2.79l-1.35-5.58h-2.34l-1.35,2.11V0.01H24.1v4.83l-1.98,3.08h-5.85
	V0.01h-0.25v7.92H8.2V0.01H7.95v7.92H0.02v0.25h7.93v7.8H0.02v0.25h7.93v7.8H0.02v0.25h7.93v0.57c-0.14-0.01-0.28-0.02-0.44-0.02
	H3.27l-1.45,7.25H0.02v0.25h1.74l-0.18,0.9h4.62c0.66,0,1.23-0.08,1.75-0.23v4.02c-1.69,0.07-3.04,1.42-3.1,3.11H0.02v0.25h4.83
	c0.08,1.67,1.42,2.99,3.09,3.05v5.08H0.02v3h7.93v7.72H0.02v0.25h7.93v7.8H0.02v0.25h7.93v7.8H0.02v0.25h7.93v7.8H0.02v0.25h7.93
	v7.8H0.02v0.25h7.93v8.26H8.2V91.7h7.83v8.26h0.25V91.7h7.83v8.26h0.25V91.7h7.83v8.26h0.25V91.7h7.83v8.26h0.25V91.7h7.99v8.3h3
	v-8.3h7.99v8.26h0.25V91.7h7.83v8.26h0.25V91.7h4.67c0,0,0,0.01,0,0.01c0.01,1.75,1.41,3.16,3.16,3.2v5.05h0.25V94.9
	c1.7-0.09,3.05-1.48,3.06-3.2h3.13l-1.6,2.5h2.51l0.73-1.23v6.99h0.25v-7.39h3.57l0.34,1.63h2.36l-0.6-2.5h2.16v8.26h0.25V91.7h7.93
	v-0.25h-7.93V89.3h0.18l0.85-3.5h-1.03v-2.15h7.93V83.4h-7.93v-7.8h7.93v-0.25h-7.93v-4.57c1.71-0.09,3.06-1.49,3.06-3.21
	c0-0.01,0-0.01,0-0.02h4.87V67.3h-4.9c-0.14-1.59-1.42-2.84-3.03-2.92v-4.88h7.93v-0.25h-7.93v-0.57h0.69l0.85-3.5h-1.54v-3.64
	H99.98z M91.8,48.52h-7.83v-8.14h7.83V48.52z M80.07,83.4H75.9v-7.8h7.83v2.34L80.07,83.4z M83.72,81.53v1.87h-1.25L83.72,81.53z
	 M21.01,16.23c0.03,0.7,0.28,1.34,0.69,1.86l-3.97,5.94h-1.45v-7.8H21.01z M32.18,16.23v7.8h-1.45l-3.97-5.94
	c0.41-0.52,0.66-1.16,0.69-1.86H32.18z M65.99,75.35l-3.89-5.82c0.23-0.29,0.41-0.62,0.53-0.98h4.94v6.8H65.99z M67.57,75.6v2.11
	l-1.41-2.11H67.57z M23.37,19.19c0.24,0.07,0.48,0.11,0.74,0.12v4.72h-3.97L23.37,19.19z M24.35,19.31c0.26-0.01,0.5-0.05,0.74-0.12
	l3.23,4.84h-3.97V19.31z M28.49,24.28l3.69,5.51v2.29h-7.83v-7.8H28.49z M67.57,32.08h-7.83v-7.8h7.83V32.08z M67.82,24.28h7.83v7.8
	h-7.83V24.28z M67.57,58.01v1.23h-2.14c-0.2-0.28-0.47-0.51-0.83-0.67c0.47-0.2,0.84-0.48,1.1-0.83c0.26-0.36,0.4-0.78,0.4-1.27
	c0-0.63-0.25-1.12-0.75-1.46s-1.22-0.51-2.17-0.51h-3.44v-2.98h7.83v2.98H67.2l-0.54,3.5H67.57z M33.88,32.33l3.97,5.94
	c-0.23,0.29-0.41,0.62-0.53,0.98h-4.89v-6.93H33.88z M32.43,32.08v-1.92l1.28,1.92H32.43z M48.5,32.33v7.8h-4.9
	c-0.07-1.68-1.41-3.02-3.09-3.08v-3.53c0.56,0.21,1.18,0.32,1.88,0.32c0.78,0,1.48-0.12,2.09-0.37c0.59-0.24,1.1-0.62,1.55-1.14
	H48.5z M60.61,57.85l0.32-1.62h1.68c0.66,0,1,0.22,1,0.66c0,0.31-0.11,0.55-0.33,0.71c-0.22,0.16-0.54,0.25-0.97,0.25H60.61z
	 M63.1,59.66c0.18,0.12,0.26,0.29,0.26,0.53c0,0.33-0.12,0.58-0.36,0.74c-0.24,0.17-0.57,0.25-1,0.25h-2.06l0.34-1.7h2.14
	C62.7,59.5,62.93,59.55,63.1,59.66z M58.93,54.51l-0.95,4.73H51.5v-7.72h7.99v2.98H58.93z M40.51,43.47
	c1.68-0.07,3.03-1.41,3.09-3.08h4.9v8.14h-7.99V43.47z M48.5,51.52v7.72h-7.99v-7.72H48.5z M51.5,48.52v-8.14h7.99v8.14H51.5z
	 M51.5,40.14v-7.8h7.99v7.8H51.5z M40.15,33.38c0.03,0.02,0.07,0.03,0.1,0.04v3.63c-0.26,0.01-0.5,0.05-0.74,0.12l-3.24-4.84h2.61
	C39.22,32.76,39.62,33.12,40.15,33.38z M37.32,41.26c0.41,1.25,1.56,2.15,2.93,2.21v5.06h-7.83v-7.26H37.32z M40.26,51.52v7.72
	h-7.83v-7.72H40.26z M40.26,59.49v7.8h-7.83v-7.8H40.26z M40.51,59.49h7.99v7.8h-7.99V59.49z M51.5,59.49h6.44l-0.68,3.42h2.24v1.42
	c-1.67,0.04-3,1.33-3.13,2.96H51.5V59.49z M62.63,66.55c-0.41-1.23-1.53-2.13-2.88-2.2v-1.43h2.13c1.14,0,2.07-0.23,2.78-0.68
	s1.07-1.11,1.07-1.99c0-0.28-0.07-0.52-0.18-0.75h2.02v7.05H62.63z M59.74,48.52v-8.14h7.83v8.14H59.74z M59.74,40.14v-7.8h7.83v7.8
	H59.74z M59.49,32.08H51.5v-7.8h7.99V32.08z M48.5,32.08h-2.63l-1.2-1.18c-0.57,0.65-1.25,0.97-2.05,0.97
	c-0.63,0-1.13-0.17-1.5-0.52c-0.37-0.34-0.55-0.8-0.55-1.37c0-0.55,0.11-1.05,0.34-1.49c0.23-0.44,0.55-0.79,0.95-1.04
	s0.88-0.38,1.42-0.38c0.82,0,1.44,0.33,1.85,0.98l1.72-1.37c-0.3-0.5-0.74-0.89-1.34-1.17c-0.6-0.28-1.29-0.41-2.06-0.41
	c-1.02,0-1.94,0.22-2.74,0.65c-0.07,0.04-0.12,0.08-0.19,0.12v-1.59h7.99V32.08z M40.26,26.03c-0.59,0.4-1.07,0.91-1.43,1.52
	c-0.44,0.77-0.67,1.63-0.67,2.59c0,0.73,0.17,1.37,0.52,1.93c0,0,0,0,0.01,0.01h-2.57l-3.69-5.51v-2.29h7.83V26.03z M32.18,26.2
	l-1.28-1.92h1.28V26.2z M32.18,32.33v6.93h-7.83v-6.93H32.18z M24.1,39.26h-7.83v-6.93h7.83V39.26z M32.18,41.26v7.26h-7.83v-7.26
	H32.18z M32.18,51.52v7.72h-7.83v-7.72H32.18z M32.18,59.49v7.8h-7.83v-7.8H32.18z M32.18,67.55v7.8h-7.83v-7.8H32.18z M32.43,67.55
	h7.83v7.8h-7.83V67.55z M40.51,67.55h7.99v7.8h-7.99V67.55z M51.5,67.55h4.84c0,0,0,0.01,0,0.01c0.01,1.75,1.41,3.16,3.16,3.2v4.59
	H51.5V67.55z M59.74,70.75c0.24-0.01,0.47-0.05,0.69-0.11l3.15,4.71h-3.84V70.75z M67.82,68.55h7.83v6.8h-7.83V68.55z M75.9,68.55
	h7.83v6.8H75.9V68.55z M67.82,66.55v-7.05h7.83v7.05H67.82z M67.82,59.24v-1.23h0.46l0.85-3.5h-1.31v-2.98h7.83v7.72H67.82z
	 M67.82,48.52v-8.14h7.83v8.14H67.82z M67.82,40.14v-7.8h7.83v7.8H67.82z M75.9,32.33h7.83v7.8H75.9V32.33z M75.9,32.08v-7.8h7.83
	v7.8H75.9z M75.9,24.03v-7.8h7.83v7.8H75.9z M75.65,24.03h-7.83v-7.8h7.83V24.03z M67.57,24.03h-7.83v-7.8h7.83V24.03z M59.49,24.03
	H51.5v-7.8h7.99V24.03z M48.5,24.03h-7.99v-7.8h7.99V24.03z M40.26,24.03h-7.83v-7.8h7.83V24.03z M17.56,24.28l-1.28,1.92v-1.92
	H17.56z M19.96,24.28h4.14v7.8h-7.83v-2.29L19.96,24.28z M16.03,32.08h-1.28l1.28-1.92V32.08z M16.03,32.33v6.93h-4.89
	c-0.12-0.37-0.29-0.7-0.53-1l3.96-5.93H16.03z M24.1,41.26v7.26h-7.83v-7.26H24.1z M24.1,51.52v7.72h-7.83v-7.72H24.1z M24.1,59.49
	v7.8h-7.83v-7.8H24.1z M24.1,67.55v7.8h-7.83v-7.8H24.1z M24.1,75.6v7.8h-7.83v-7.8H24.1z M24.35,75.6h7.83v7.8h-7.83V75.6z
	 M32.43,75.6h7.83v7.8h-7.83V75.6z M40.51,75.6h7.99v7.8h-7.99V75.6z M51.5,75.6h7.99v7.8H51.5V75.6z M59.74,75.6h4.01l3.82,5.71
	v2.09h-7.83V75.6z M67.82,81.68l1.15,1.72h-1.15V81.68z M67.82,78.09V75.6h7.83v7.8h-4.27L67.82,78.09z M75.65,83.65v4.84
	c-0.27,0.01-0.53,0.05-0.79,0.12l-3.32-4.96H75.65z M76.58,88.61c-0.22-0.06-0.45-0.1-0.69-0.11v-4.85h4.01L76.58,88.61z
	 M83.97,75.6h1.31l-1.31,1.97V75.6z M83.97,75.35v-6.8h4.84c0.12,0.37,0.29,0.7,0.53,1l-3.88,5.8H83.97z M75.9,66.55v-7.05h6.58
	c-0.02,0.18-0.03,0.36-0.03,0.55c0,0.73,0.17,1.37,0.52,1.93c0.2,0.32,0.46,0.59,0.76,0.83v3.74H75.9z M83.72,56.63
	c-0.23,0.25-0.44,0.52-0.61,0.82c-0.32,0.55-0.52,1.15-0.61,1.79H75.9v-7.72h7.83V56.63z M75.9,48.52v-8.14h7.83v8.14H75.9z
	 M91.8,40.14h-7.83v-7.8h7.83V40.14z M91.8,32.08h-7.83v-7.8h7.83V32.08z M91.8,24.03h-7.83v-7.8h7.83V24.03z M91.8,8.18v7.8h-7.83
	v-7.8H91.8z M83.72,8.18v7.8H75.9v-7.8H83.72z M75.65,8.18v7.8h-7.83v-7.8H75.65z M67.57,8.18v7.8h-7.83v-7.8H67.57z M59.49,8.18
	v7.8H51.5v-7.8H59.49z M48.5,8.18v7.8h-7.99v-7.8H48.5z M40.26,8.18v7.8h-7.83v-7.8H40.26z M32.18,8.18v7.8h-4.73
	c-0.07-1.68-1.41-3.02-3.1-3.08V9.11h3.02l0.34,1.63h2.36l-0.62-2.57H32.18z M26.45,4.64l0.56,2.72h-2.17L26.45,4.64z M21.96,8.18
	l-1.65,2.57h2.51l0.97-1.63h0.31v3.78c-1.68,0.07-3.03,1.41-3.09,3.08h-4.73v-7.8H21.96z M8.2,8.18h7.83v7.8H8.2V8.18z M8.2,16.23
	h7.83v7.8H8.2V16.23z M8.2,24.28h7.83v2.29l-3.69,5.51H9.53c0.35-0.4,0.53-0.9,0.53-1.51c0-0.38-0.1-0.72-0.29-1
	s-0.47-0.51-0.83-0.67c0.47-0.2,0.84-0.48,1.1-0.83c0.26-0.36,0.4-0.78,0.4-1.27c0-0.63-0.25-1.12-0.75-1.46
	c-0.37-0.25-0.86-0.41-1.48-0.48V24.28z M5.27,26.55h1.68c0.66,0,1,0.22,1,0.66c0,0.31-0.11,0.55-0.33,0.71
	c-0.22,0.16-0.54,0.25-0.97,0.25h-1.7L5.27,26.55z M4.61,29.81h2.1c0.3,0,0.54,0.06,0.72,0.17s0.26,0.29,0.26,0.53
	c0,0.33-0.12,0.58-0.36,0.74c-0.24,0.17-0.57,0.25-1,0.25H4.27L4.61,29.81z M8.99,32.56c0.1-0.07,0.18-0.15,0.27-0.22h2.91
	l-3.22,4.82c-0.24-0.07-0.49-0.11-0.75-0.12v-4.11C8.49,32.82,8.75,32.71,8.99,32.56z M8.2,43.44c1.37-0.05,2.5-0.95,2.92-2.18h4.9
	v7.26H8.2V43.44z M8.2,51.52h7.83v7.72H8.2V51.52z M8.2,59.49h7.83v7.8H8.2V59.49z M8.2,67.55h7.83v7.8H8.2V67.55z M8.2,75.6h7.83
	v7.8H8.2V75.6z M8.2,91.45v-7.8h7.83v7.8H8.2z M16.28,91.45v-7.8h7.83v7.8H16.28z M24.35,91.45v-7.8h7.83v7.8H24.35z M32.43,91.45
	v-7.8h7.83v7.8H32.43z M40.51,91.45v-7.8h7.99v7.8H40.51z M51.5,91.45v-7.8h7.99v7.8H51.5z M59.74,91.45v-7.8h7.83v7.8H59.74z
	 M67.82,91.45v-7.8h1.31l4.06,6.07c-0.38,0.49-0.63,1.08-0.68,1.73H67.82z M78.93,91.45c-0.05-0.65-0.29-1.25-0.68-1.73l4.06-6.07
	h1.41v5.5l-1.48,2.31H78.93z M85.01,90.81l1.61-2.72l0.56,2.72H85.01z M91.8,85.8h-0.65l-0.54,3.5h1.19v2.15h-2.22l-1.37-5.65h-2.34
	l-1.9,2.96v-5.11h7.83V85.8z M91.8,83.4h-7.83v-2.24l3.72-5.56h4.11V83.4z M87.86,75.35L91,70.66c0.26,0.07,0.52,0.12,0.8,0.13v4.56
	H87.86z M91.8,64.36c-1.39,0.03-2.55,0.94-2.97,2.19h-4.85v-3.57c0.15,0.1,0.29,0.22,0.46,0.3c0.64,0.31,1.38,0.46,2.23,0.46
	c0.78,0,1.48-0.12,2.09-0.37c0.61-0.24,1.14-0.64,1.6-1.19l-1.4-1.38c-0.57,0.65-1.25,0.97-2.05,0.97c-0.63,0-1.13-0.17-1.5-0.52
	c-0.37-0.34-0.55-0.8-0.55-1.37c0-0.14,0.03-0.26,0.04-0.39h6.91V64.36z M91.8,55.17h-0.14l-0.54,3.5h0.68v0.57h-6.89
	c0.06-0.3,0.14-0.59,0.27-0.85c0.23-0.44,0.55-0.79,0.95-1.04s0.88-0.38,1.42-0.38c0.82,0,1.44,0.33,1.85,0.98l1.72-1.37
	c-0.3-0.5-0.74-0.89-1.34-1.17c-0.6-0.28-1.29-0.41-2.06-0.41c-1.02,0-1.94,0.22-2.74,0.65c-0.37,0.2-0.71,0.44-1,0.72v-4.85h7.83
	V55.17z"/>
</svg>

<svg id="Layer_1" data-name="Layer 1" xmlns="http://www.w3.org/2000/svg" viewBox="0 0 100 100"><defs><style>.cls-1{fill:#231f20;}</style></defs><title> </title><path class="cls-1" d="M100,51.52v-3H92.05V40.39H100v-.25H92.05V32.33H100v-.25H92.05v-7.8H100V24H92.05v-7.8H100V16H92.05V8.18H100V7.93H92.05V0H91.8V7.93H84V0h-.25V7.93H75.9V0h-.25V7.93H67.82V0h-.25V7.93H59.74V0h-.25V7.93h-8V.05h-3V7.93h-8V0h-.25V7.93H32.43V0h-.25V7.93H29.39L28.05,2.35H25.71l-1.36,2.1V0H24.1V4.84l-2,3.09H16.28V0H16V7.93H8.2V0H8V7.93H0v.25H8V16H0v.25H8V24H0v.25H8v.57l-.44,0H3.27L1.82,32.08H0v.25H1.77l-.18.9H6.21A6.16,6.16,0,0,0,8,33v4a3.22,3.22,0,0,0-3.1,3.11H0v.25H4.86a3.21,3.21,0,0,0,3.09,3v5.08H0v3H8v7.72H0v.25H8V67.3H0v.25H8v7.8H0v.25H8v7.8H0v.25H8v7.8H0v.25H8V100H8.2V91.7H16V100h.25V91.7H24.1V100h.25V91.7h7.83V100h.25V91.7h7.83V100h.25V91.7h8V100h3V91.7h8V100h.25V91.7h7.83V100h.25V91.7h4.67a3.22,3.22,0,0,0,3.16,3.2v5h.25V94.9a3.21,3.21,0,0,0,3-3.2h3.13l-1.6,2.5H83L83.72,93v7H84V92.57h3.57l.33,1.63h2.37l-.6-2.5H91.8V100h.25V91.7H100v-.25H92.05V89.3h.18l.85-3.5h-1V83.65H100V83.4H92.05V75.6H100v-.25H92.05V70.77a3.22,3.22,0,0,0,3.06-3.21H100V67.3H95.08a3.21,3.21,0,0,0-3-2.93V59.49H100v-.25H92.05v-.57h.69l.85-3.5H92.05V51.52Zm-8.18-3H84V40.39H91.8ZM80.07,83.4H75.9V75.6h7.82v2.34Zm3.65-1.87V83.4H82.48ZM21,16.23a3.21,3.21,0,0,0,.69,1.86l-4,5.94H16.28v-7.8Zm11.17,0V24H30.73l-4-5.94a3.21,3.21,0,0,0,.69-1.86ZM66,75.35,62.1,69.53a3.21,3.21,0,0,0,.53-1h4.94v6.8Zm1.58.25v2.11L66.16,75.6ZM23.37,19.19a2.93,2.93,0,0,0,.73.12V24h-4Zm1,.12a3,3,0,0,0,.74-.12L28.33,24h-4Zm4.14,5,3.69,5.51v2.29H24.35v-7.8Zm39.08,7.8H59.74v-7.8h7.83Zm.25-7.8h7.83v7.8H67.82ZM67.57,58v1.23H65.43a2,2,0,0,0-.83-.66,2.55,2.55,0,0,0,1.1-.84,2.06,2.06,0,0,0,.4-1.26A1.66,1.66,0,0,0,65.35,55a3.87,3.87,0,0,0-2.17-.51H59.74v-3h7.83v3H67.2L66.66,58ZM33.88,32.33l4,6a3.21,3.21,0,0,0-.53,1H32.43V32.33Zm-1.45-.25V30.17l1.28,1.91Zm16.07.25v7.81H43.6a3.22,3.22,0,0,0-3.09-3.09V33.52a5.25,5.25,0,0,0,1.88.32,5.4,5.4,0,0,0,2.08-.37A3.79,3.79,0,0,0,46,32.33ZM60.61,57.85l.33-1.62h1.68q1,0,1,.66a.83.83,0,0,1-.33.71,1.62,1.62,0,0,1-1,.25Zm2.49,1.81a.62.62,0,0,1,.26.54.84.84,0,0,1-.36.74,1.7,1.7,0,0,1-1,.25H59.94l.34-1.7h2.13A1.35,1.35,0,0,1,63.1,59.66Zm-4.17-5.15L58,59.24H51.5V51.52h8v3Zm-18.42-11a3.22,3.22,0,0,0,3.09-3.08h4.9v8.13h-8Zm8,8.05v7.72h-8V51.52Zm3-3V40.39h8v8.13Zm0-8.38V32.33h8v7.81ZM40.15,33.38l.11,0v3.63a3.47,3.47,0,0,0-.74.12l-3.24-4.84h2.61A3.51,3.51,0,0,0,40.15,33.38Zm-2.83,7.88a3.24,3.24,0,0,0,2.94,2.21v5.05H32.43V41.26Zm2.94,10.26v7.72H32.43V51.52Zm0,8V67.3H32.43V59.49Zm.25,0h8V67.3h-8Zm11,0h6.44l-.69,3.42h2.24v1.42a3.22,3.22,0,0,0-3.13,3H51.5Zm11.13,7.06a3.22,3.22,0,0,0-2.89-2.21V62.91h2.13a5.17,5.17,0,0,0,2.79-.68,2.19,2.19,0,0,0,1.06-2,1.88,1.88,0,0,0-.17-.76h2v7.06Zm-2.89-18V40.39h7.83v8.13Zm0-8.38V32.33h7.83v7.81Zm-.25-8.06h-8v-7.8h8Zm-11,0H45.87l-1.2-1.18a2.65,2.65,0,0,1-2.06,1,2.13,2.13,0,0,1-1.5-.51A1.82,1.82,0,0,1,40.56,30a3.37,3.37,0,0,1,.34-1.5,2.61,2.61,0,0,1,1-1,2.66,2.66,0,0,1,1.41-.38,2,2,0,0,1,1.85,1l1.72-1.37a2.88,2.88,0,0,0-1.35-1.17,4.8,4.8,0,0,0-2.06-.42,5.72,5.72,0,0,0-2.74.65l-.18.12V24.28h8Zm-8.24-6a4.62,4.62,0,0,0-1.43,1.52,5,5,0,0,0-.67,2.59,3.59,3.59,0,0,0,.52,1.94H36.12l-3.69-5.51V24.28h7.83Zm-8.08.17L30.9,24.28h1.28Zm0,6.13v6.93H24.35V32.33ZM24.1,39.26H16.28V32.33H24.1Zm8.08,2v7.26H24.35V41.26Zm0,10.26v7.72H24.35V51.52Zm0,8V67.3H24.35V59.49Zm0,8.06v7.8H24.35v-7.8Zm.25,0h7.83v7.8H32.43Zm8.08,0h8v7.8h-8Zm11,0h4.84a3.22,3.22,0,0,0,3.15,3.2v4.59h-8Zm8.24,3.2a3.11,3.11,0,0,0,.69-.12l3.15,4.72H59.74Zm8.08-2.2h7.83v6.8H67.82Zm8.08,0h7.82v6.8H75.9Zm-8.08-2V59.49h7.83v7.06Zm0-7.31V58h.46l.85-3.5H67.82v-3h7.83v7.72Zm0-10.72V40.39h7.83v8.13Zm0-8.38V32.33h7.83v7.81Zm8.08-7.81h7.82v7.81H75.9Zm0-.25v-7.8h7.82v7.8Zm0-8v-7.8h7.82V24Zm-.25,0H67.82v-7.8h7.83Zm-8.08,0H59.74v-7.8h7.83Zm-8.08,0h-8v-7.8h8Zm-11,0h-8v-7.8h8Zm-8.24,0H32.43v-7.8h7.83Zm-22.7.25L16.28,26.2V24.28Zm2.4,0H24.1v7.8H16.28V29.79ZM16,32.08H14.75L16,30.17Zm0,.25v6.93H11.14a3.1,3.1,0,0,0-.53-1l4-5.93Zm8.07,8.93v7.26H16.28V41.26Zm0,10.26v7.72H16.28V51.52Zm0,8V67.3H16.28V59.49Zm0,8.06v7.8H16.28v-7.8Zm0,8v7.8H16.28V75.6Zm.25,0h7.83v7.8H24.35Zm8.08,0h7.83v7.8H32.43Zm8.08,0h8v7.8h-8Zm11,0h8v7.8h-8Zm8.24,0h4l3.82,5.71V83.4H59.74Zm8.08,6.08L69,83.4H67.82Zm0-3.59V75.6h7.83v7.8H71.37Zm7.83,5.56v4.84a3.35,3.35,0,0,0-.79.12l-3.32-5Zm.93,5a3.11,3.11,0,0,0-.68-.11V83.65h4ZM84,75.6h1.32l-1.32,2Zm0-.25v-6.8h4.84a3.05,3.05,0,0,0,.53,1l-3.89,5.81Zm-8.07-8.8V59.49h6.58a4.91,4.91,0,0,0,0,.55A3.64,3.64,0,0,0,83,62a3.2,3.2,0,0,0,.76.84v3.74Zm7.82-9.92a4.48,4.48,0,0,0-.61.82,4.88,4.88,0,0,0-.61,1.79H75.9V51.52h7.82ZM75.9,48.52V40.39h7.82v8.13Zm15.9-8.38H84V32.33H91.8Zm0-8.06H84v-7.8H91.8Zm0-8H84v-7.8H91.8Zm0-15.85V16H84V8.18Zm-8.08,0V16H75.9V8.18Zm-8.07,0V16H67.82V8.18Zm-8.08,0V16H59.74V8.18Zm-8.08,0V16h-8V8.18Zm-11,0V16h-8V8.18Zm-8.24,0V16H32.43V8.18Zm-8.08,0V16H27.45a3.21,3.21,0,0,0-3.1-3.08V9.11h3l.34,1.64h2.36l-.62-2.57ZM26.45,4.64,27,7.36H24.84ZM22,8.18l-1.64,2.57h2.51l1-1.64h.3V12.9A3.21,3.21,0,0,0,21,16H16.28V8.18ZM8.2,8.18H16V16H8.2Zm0,8.05H16V24H8.2Zm0,8.05H16v2.29l-3.69,5.51H9.53a2.26,2.26,0,0,0,.53-1.51,1.69,1.69,0,0,0-.3-1,1.86,1.86,0,0,0-.83-.67,2.61,2.61,0,0,0,1.1-.83,2,2,0,0,0,.4-1.27,1.66,1.66,0,0,0-.75-1.46,3.16,3.16,0,0,0-1.48-.47ZM5.27,26.55H7c.66,0,1,.22,1,.66a.83.83,0,0,1-.33.71,1.58,1.58,0,0,1-1,.25H5Zm-.66,3.26h2.1a1.28,1.28,0,0,1,.72.18.57.57,0,0,1,.26.53.88.88,0,0,1-.35.75,1.83,1.83,0,0,1-1,.25H4.27ZM9,32.56a2,2,0,0,0,.27-.23h2.91L9,37.15A3.09,3.09,0,0,0,8.2,37V32.92A3.8,3.8,0,0,0,9,32.56ZM8.2,43.44a3.2,3.2,0,0,0,2.92-2.18H16v7.26H8.2Zm0,8.08H16v7.72H8.2Zm0,8H16V67.3H8.2Zm0,8.06H16v7.8H8.2Zm0,8H16v7.8H8.2Zm0,15.85v-7.8H16v7.8Zm8.08,0v-7.8H24.1v7.8Zm8.07,0v-7.8h7.83v7.8Zm8.08,0v-7.8h7.83v7.8Zm8.08,0v-7.8h8v7.8Zm11,0v-7.8h8v7.8Zm8.24,0v-7.8h7.83v7.8Zm8.08,0v-7.8h1.32l4,6.07a3.18,3.18,0,0,0-.67,1.73Zm11.11,0a3.11,3.11,0,0,0-.68-1.73l4.06-6.07h1.41v5.5l-1.48,2.3ZM85,90.81l1.6-2.72.57,2.72Zm6.79-5h-.65l-.54,3.5H91.8v2.15H89.58L88.21,85.8H85.87l-1.9,3V83.65H91.8Zm0-2.4H84V81.16l3.72-5.56H91.8Zm-3.94-8.05L91,70.66a3,3,0,0,0,.8.12v4.57Zm3.94-11a3.21,3.21,0,0,0-3,2.19H84V63a5.46,5.46,0,0,0,.47.31,5.19,5.19,0,0,0,2.23.46,5.69,5.69,0,0,0,2.09-.37,4,4,0,0,0,1.59-1.19L89,60.8a2.66,2.66,0,0,1-2,1,2.06,2.06,0,0,1-1.5-.52,1.77,1.77,0,0,1-.56-1.36,2.57,2.57,0,0,1,0-.4H91.8Zm0-9.19h-.14l-.54,3.5h.68v.57H84.91a3,3,0,0,1,.28-.85,2.51,2.51,0,0,1,1-1A2.67,2.67,0,0,1,87.56,57a2,2,0,0,1,1.84,1l1.72-1.37a3,3,0,0,0-1.34-1.17A5,5,0,0,0,87.71,55a5.68,5.68,0,0,0-2.73.65,4.62,4.62,0,0,0-1,.72V51.52H91.8Z"/></svg>
